logo.svg

<svg enable-background="new 0 0 71.73 143.242" height="500" viewBox="0 0 499.99998 499.99999" width="500" xmlns="http://www.w3.org/2000/svg"><path d="m100.40684 316.94749c-74.7956-26.90845-119.222157-59.93375-167.932364-133.63506-11.95307-20.30527-33.932526-65.62035-33.100106-124.768452-1.94542-58.97039638 27.853106-126.919637 83.465787-163.181058 53.704688-38.2723 123.010103-38.84283 164.237953-23.72845 51.62015 19.17097 83.94685 67.580149 93.78211 105.520071 11.96243 42.387598-.18707 112.64702-58.65241 141.416719-26.88975 14.4129-61.8137 17.02238-89.199161 6.71543-27.385465-11.04586-47.260497-35.298072-53.882386-60.635234-14.43162-55.9400357 28.012109-86.945093 46.73673-90.125093 76.179847-25.402636 114.760797 93.810156 25.664517 103.948765 40.61054 13.561792 82.47439-28.114995 74.51501-70.5680705-1.60869-42.4624205-53.01257-84.6068485-109.710199-67.3319305-14.805733 4.087238-37.224763 14.478379-54.770918 37.851417-17.9950913 23.232738-26.1602193 59.643811-16.8072673 95.035401 9.1191363 35.587995 36.8506603 69.651465 75.4783773 84.962265 39.020537 14.3942 82.465027 10.2789 118.342977-8.38961 76.59137-37.88882 91.92087-130.211867 76.70362-181.007777-16.24082-66.227009-70.98584-112.981253-116.16375-130.614063-51.55351-18.79944-131.932826-17.47132-196.290533 27.6567-65.863517 42.237961-101.545057 125.2361065-98.954277 192.128458-.88854 67.930532 24.42991 119.923612 38.244236 143.034772 55.687511 84.92487 119.493386 111.46856 198.292054 115.7148" fill="#ff6b00" stroke="#000" stroke-width="9.999743" transform="translate(177.83467 178.05988)"/></svg>

<?xml version="1.0" encoding="UTF-8" standalone="no"?>
<!-- Generator: Adobe Illustrator 10.0, SVG Export Plug-In . SVG Version: 3.0.0 Build 77)  -->

<svg
   xmlns:ns0="http://ns.adobe.com/SaveForWeb/1.0/"
   xmlns:ns="http://ns.adobe.com/Variables/1.0/"
   xmlns:i="http://ns.adobe.com/AdobeIllustrator/10.0/"
   xmlns:dc="http://purl.org/dc/elements/1.1/"
   xmlns:cc="http://creativecommons.org/ns#"
   xmlns:rdf="http://www.w3.org/1999/02/22-rdf-syntax-ns#"
   xmlns:svg="http://www.w3.org/2000/svg"
   xmlns="http://www.w3.org/2000/svg"
   xmlns:sodipodi="http://sodipodi.sourceforge.net/DTD/sodipodi-0.dtd"
   xmlns:inkscape="http://www.inkscape.org/namespaces/inkscape"
   i:viewOrigin="270 467"
   i:rulerOrigin="0 0"
   i:pageBounds="0 792 612 0"
   width="500"
   height="500"
   viewBox="0 0 499.99998 499.99999"
   overflow="visible"
   enable-background="new 0 0 71.73 143.242"
   xml:space="preserve"
   version="1.1"
   id="svg13"
   sodipodi:docname="officiallogo-nd.svg"
   style="overflow:visible"
   inkscape:version="0.92.4 (5da689c313, 2019-01-14)"
   inkscape:export-filename="/home/yegortimoshenko/logo.svg.png"
   inkscape:export-xdpi="96"
   inkscape:export-ydpi="96"><defs
   id="defs17" /><sodipodi:namedview
   pagecolor="#ffffff"
   bordercolor="#666666"
   borderopacity="1"
   objecttolerance="10"
   gridtolerance="10"
   guidetolerance="10"
   inkscape:pageopacity="0"
   inkscape:pageshadow="2"
   inkscape:window-width="1366"
   inkscape:window-height="704"
   id="namedview15"
   showgrid="false"
   fit-margin-top="0"
   fit-margin-left="0"
   fit-margin-right="0"
   fit-margin-bottom="0"
   inkscape:zoom="0.29125046"
   inkscape:cx="-172.56335"
   inkscape:cy="71.079159"
   inkscape:window-x="0"
   inkscape:window-y="27"
   inkscape:window-maximized="1"
   inkscape:current-layer="g10" />
	<metadata
   id="metadata2">
		<ns:variableSets>
			<ns:variableSet
   varSetName="binding1"
   locked="none">
				<ns:variables />
				<ns:sampleDataSets />
			</ns:variableSet>
		</ns:variableSets>
		<ns0:sfw>
			<ns0:slices />
			<ns0:sliceSourceBounds
   y="323.758"
   x="270"
   width="71.73"
   height="143.242"
   bottomLeftOrigin="true" />
		</ns0:sfw>
	<rdf:RDF><cc:Work
     rdf:about=""><dc:format>image/svg+xml</dc:format><dc:type
       rdf:resource="http://purl.org/dc/dcmitype/StillImage" /><dc:title></dc:title></cc:Work></rdf:RDF></metadata>
	<g
   id="Layer_1"
   i:layer="yes"
   i:dimmedPercent="50"
   i:rgbTrio="#4F008000FFFF"
   transform="translate(177.83467,178.05988)">
		<g
   id="g10">
			
			
			<path
   i:knockout="Off"
   d="M 100.40684,316.94749 C 25.61124,290.03904 -18.815317,257.01374 -67.525524,183.31243 -79.478594,163.00716 -101.45805,117.69208 -100.62563,58.543978 c -1.94542,-58.97039638 27.853106,-126.919637 83.465787,-163.181058 53.704688,-38.2723 123.010103,-38.84283 164.237953,-23.72845 51.62015,19.17097 83.94685,67.580149 93.78211,105.520071 11.96243,42.387598 -0.18707,112.64702 -58.65241,141.416719 -26.88975,14.4129 -61.8137,17.02238 -89.199161,6.71543 C 65.623184,114.24083 45.748152,89.988618 39.126263,64.651456 24.694643,8.7114203 67.138372,-22.293637 85.862993,-25.473637 162.04284,-50.876273 200.62379,68.336519 111.52751,78.475128 152.13805,92.03692 194.0019,50.360133 186.04252,7.9070575 184.43383,-34.555363 133.02995,-76.699791 76.332321,-59.424873 61.526588,-55.337635 39.107558,-44.946494 21.561403,-21.573456 3.5663117,1.659282 -4.5988163,38.070355 4.7541357,73.461945 13.873272,109.04994 41.604796,143.11341 80.232513,158.42421 c 39.020537,14.3942 82.465027,10.2789 118.342977,-8.38961 76.59137,-37.88882 91.92087,-130.211867 76.70362,-181.007777 -16.24082,-66.227009 -70.98584,-112.981253 -116.16375,-130.614063 -51.55351,-18.79944 -131.932826,-17.47132 -196.290533,27.6567 -65.863517,42.237961 -101.545057,125.2361065 -98.954277,192.128458 -0.88854,67.930532 24.42991,119.923612 38.244236,143.034772 55.687511,84.92487 119.493386,111.46856 198.292054,115.7148"
   id="path8"
   inkscape:connector-curvature="0"
   style="fill:#ff6b00;fill-opacity:1;stroke:#000000;stroke-width:9.99974346;stroke-miterlimit:4;stroke-dasharray:none;stroke-opacity:1"
   sodipodi:nodetypes="ccccccccccccccccccccccc" />
		</g>
	</g>
</svg>
